src/assets/icons/twitter.svg

<?xml version="1.0" encoding="UTF-8" standalone="no"?>
<svg width="256px" height="209px" viewBox="0 0 256 209" version="1.1" xmlns="http://www.w3.org/2000/svg" xmlns:xlink="http://www.w3.org/1999/xlink" preserveAspectRatio="xMidYMid">
    <g>
        <path d="M256,25.4500259 C246.580841,29.6272672 236.458451,32.4504868 225.834156,33.7202333 C236.678503,27.2198053 245.00583,16.9269929 248.927437,4.66307685 C238.779765,10.6812633 227.539325,15.0523376 215.57599,17.408298 C205.994835,7.2006971 192.34506,0.822 177.239197,0.822 C148.232605,0.822 124.716076,24.3375931 124.716076,53.3423116 C124.716076,57.4586875 125.181462,61.4673784 126.076652,65.3112644 C82.4258385,63.1210453 43.7257252,42.211429 17.821398,10.4359288 C13.3005011,18.1929938 10.710443,27.2151234 10.710443,36.8402889 C10.710443,55.061526 19.9835254,71.1374907 34.0762135,80.5557137 C25.4660961,80.2832239 17.3681846,77.9207088 10.2862577,73.9869292 C10.2825122,74.2060448 10.2825122,74.4260967 10.2825122,74.647085 C10.2825122,100.094453 28.3867003,121.322443 52.413563,126.14673 C48.0059695,127.347184 43.3661509,127.988612 38.5755734,127.988612 C35.1914554,127.988612 31.9009766,127.659938 28.694773,127.046602 C35.3777973,147.913145 54.7742053,163.097665 77.7569918,163.52185 C59.7820257,177.607983 37.1354036,186.004604 12.5289147,186.004604 C8.28987161,186.004604 4.10888474,185.75646 0,185.271409 C23.2431033,200.173139 50.8507261,208.867532 80.5109185,208.867532 C177.116529,208.867532 229.943977,128.836982 229.943977,59.4326002 C229.943977,57.1552968 229.893412,54.8901664 229.792282,52.6381454 C240.053257,45.2331635 248.958338,35.9825545 256,25.4500259" fill="#55acee"></path>
    </g>
</svg>

<?xml version="1.0" encoding="UTF-8" standalone="no"?>
<svg
   xmlns:dc="http://purl.org/dc/elements/1.1/"
   xmlns:cc="http://creativecommons.org/ns#"
   xmlns:rdf="http://www.w3.org/1999/02/22-rdf-syntax-ns#"
   xmlns:svg="http://www.w3.org/2000/svg"
   xmlns="http://www.w3.org/2000/svg"
   xmlns:sodipodi="http://sodipodi.sourceforge.net/DTD/sodipodi-0.dtd"
   xmlns:inkscape="http://www.inkscape.org/namespaces/inkscape"
   width="256px"
   height="209px"
   viewBox="0 0 256 209"
   version="1.1"
   preserveAspectRatio="xMidYMid"
   id="svg6"
   sodipodi:docname="twitter.svg"
   inkscape:version="0.92.4 (5da689c313, 2019-01-14)">
  <metadata
     id="metadata12">
    <rdf:RDF>
      <cc:Work
         rdf:about="">
        <dc:format>image/svg+xml</dc:format>
        <dc:type
           rdf:resource="http://purl.org/dc/dcmitype/StillImage" />
      </cc:Work>
    </rdf:RDF>
  </metadata>
  <defs
     id="defs10" />
  <sodipodi:namedview
     pagecolor="#ffffff"
     bordercolor="#666666"
     borderopacity="1"
     objecttolerance="10"
     gridtolerance="10"
     guidetolerance="10"
     inkscape:pageopacity="0"
     inkscape:pageshadow="2"
     inkscape:window-width="640"
     inkscape:window-height="480"
     id="namedview8"
     showgrid="false"
     inkscape:zoom="1.1291866"
     inkscape:cx="128"
     inkscape:cy="104.5"
     inkscape:window-x="0"
     inkscape:window-y="0"
     inkscape:window-maximized="0"
     inkscape:current-layer="svg6" />
  <g
     id="g4"
     transform="matrix(0.88930086,0,0,0.88506835,15.940676,11.607186)">
    <path
       d="m 256,25.450026 c -9.41916,4.177241 -19.54155,7.000461 -30.16584,8.270207 C 236.6785,27.219805 245.00583,16.926993 248.92744,4.6630769 238.77976,10.681263 227.53932,15.052338 215.57599,17.408298 205.99483,7.2006971 192.34506,0.822 177.2392,0.822 c -29.0066,0 -52.52312,23.515593 -52.52312,52.520312 0,4.116376 0.46538,8.125066 1.36057,11.968952 C 82.425838,63.121045 43.725725,42.211429 17.821398,10.435929 c -4.520897,7.757065 -7.110955,16.779194 -7.110955,26.40436 0,18.221237 9.273082,34.297202 23.365771,43.715425 -8.610118,-0.27249 -16.708029,-2.635005 -23.789956,-6.568785 -0.0037,0.219116 -0.0037,0.439168 -0.0037,0.660156 0,25.447365 18.104188,46.675355 42.131051,51.499645 -4.407594,1.20045 -9.047412,1.84188 -13.83799,1.84188 -3.384118,0 -6.674596,-0.32867 -9.8808,-0.94201 6.683024,20.86654 26.079432,36.05106 49.062219,36.47525 -17.974966,14.08613 -40.621588,22.48275 -65.228077,22.48275 -4.2390434,0 -8.4200303,-0.24814 -12.528915,-0.73319 23.243103,14.90173 50.850726,23.59612 80.510919,23.59612 96.605615,0 149.433065,-80.03055 149.433065,-149.43493 0,-2.277303 -0.0506,-4.542434 -0.1517,-6.794455 C 240.05326,45.233164 248.95834,35.982554 256,25.450026"
       id="path2"
       inkscape:connector-curvature="0"
       style="fill:#55acee" />
  </g>
</svg>
